X:1
T:Title
%%score { 1 | 2 }
L:1/8
M:6/4
K:C
V:1 treble nm="Grand Piano"
V:2 bass 
V:1
 z6 z4[Q:1/4=114] [EG]2 | [Ec]3 [Fc] [Gc]2 [Ac]2 [GB]2 [FA]2 | [EG]6 [CE]4 [CE]2 | %3
 [EG]3 [FA] [EG]2 [DF]4 [EG]2 |[M:5/4] [CE]2- [CE]2- [CE]6 |[M:1/4] [EG]2 | %6
[M:6/4] [Ec]3 [Fc] [Gc]2 [Ac]2 [GB]2 [FA]2 | [EG]6 [CE]4 [CE]2 | ^F2 E2 D2 B4 A2 | %9
[M:5/4] [B,G]2- [B,G]2- [B,G]6 |[M:1/4] [FG]2 |[M:6/4] [Ec]3 [Ec] [Ec]2 d2 c2 A2 | %12
 [EG]6 [CE]4 [EG]2 | A3 A A2 [^Fd]4 [Fc]2 |[M:5/4] [FB]2- [FB]2- [FB]6 |[M:1/4] [FG]2 | %16
[M:6/4] [Ec]3 [Fc] [Gc]2 d2 c2 A2 | [EG]6 [Ec]4 [EG]2 | G2 G2 G2 A4 B2 | %19
[M:5/4] [Ec]2- [Ec]2- [Ec]6 |] %20
V:2
 z6 z4 [C,G,]2 | [C,G,]3 [C,G,] [E,C]2 [F,C]2 [F,C]2 [F,C]2 | [C,C]6 [C,G,]4 [C,G,]2 | %3
 [G,,G,]3 [G,,G,] [G,,G,]2 [G,,G,]4 [G,,G,]2 |[M:5/4] [C,G,]2- [C,G,]2- [C,G,]6 |[M:1/4] [C,G,]2 | %6
[M:6/4] [C,G,]3 [D,G,] [E,C]2 [F,C]2 [F,C]2 [F,C]2 | [C,C]6 [C,G,]4 [A,,A,]2 | %8
 [D,A,C]2 [D,G,C]2 [D,^F,C]2 [D,G,D]4 [D,F,C]2 |[M:5/4] [G,,G,]2- [G,,G,]2- [G,,G,]6 | %10
[M:1/4] [B,,B,]2 |[M:6/4] [C,G,]3 [C,G,] [C,G,]2 [F,A,F]4 [F,CF]2 | [C,C]6 [C,G,]4 [C,C]2 | %13
 [F,CF]3 [F,CF] [F,CF]2 [D,C]4 [D,D]2 |[M:5/4] [G,D]2- [G,D]2- [G,D]6 |[M:1/4] [G,B,]2 | %16
[M:6/4] [C,G,]3 [D,G,] [E,C]2 [F,A,F]2 [F,A,F]2 [F,CF]2 | [C,C]6 [C,G,]4 [C,C]2 | %18
 [G,B,F]2 [G,B,F]2 [G,B,F]2 [G,CF]4 [G,F]2 |[M:5/4][K:bass] [C,G,]2- [C,G,]2- [C,G,]6 |] %20

